X:1
T:Game of throne
T:Game of throne
T:générique de la série
T:arrangement de Roberto Capancioni 
C:arrangement de Roberto Capancioni
%%score { 1 | 2 }
L:1/8
Q:1/4=120
M:3/4
K:C
V:1 treble nm="Accordéon " snm="Acc."
V:2 bass 
V:1
|: e6 | A6 | cd e4 | A4 cd | B6- | B6- | B6- | B6 | d6 | G6 |1 cB d4 | G6 | cB A4- | A6- | A6- | %15
 A6 :|2 B3 c3 | B3 G3 | A6- | A6- | A6- | A6 |: [F-A]6 | [FA]6 | [E-G]6 | [EG]6 | A,6- | A,6 | %28
 E6- | E6 | F6 | c6 | [Ac]6 | [GB]6 | [E-A]6 | [E-A]6 | [E-A]6 | [EA]6 :: e2 A2 cd | e2 A2 cd | %40
 e2 A2 cd | e2 A2 cd | B2 E2 GA | B2 E2 GA | B2 E2 GA | B2 E2 GA | d2 G2 Bc | d2 G2 Bc | d2 G2 Bc | %49
 d2 G2 cB | A2 E2 FG | A2 E2 FG | A2 E2 FG | A2 E2 FG :: A2 C2 FG | A2 C2 FA | G2 C2 EF | %57
 G2 C2 EG | F2 A,2 DE | F2 A,2 DF | E2 A,2 CD | E2 A,2 AB | c2 F2 AB | c2 F2 AB | c2 F2 Ac | %65
 B2 E2 cB | A2 E2 FG | A2 E2 FG | A2 E2 FG | A2 E2 FG :| !fermata![EA]6 |] %71
V:2
|: A,,2 .[A,CE]2 .[A,CE]2 | A,,2 .[A,CE]2 .[A,CE]2 | A,,2 .[A,CE]2 .[A,CE]2 | %3
 A,,2 .[A,CE]2 .[A,CE]2 | E,,2 .[E,G,B,]2 .[E,G,B,]2 | E,,2 .[E,G,B,]2 .[E,G,B,]2 | %6
 E,,2 .[E,G,B,]2 .[E,G,B,]2 | E,,2 .[E,G,B,]2 .[E,G,B,]2 | G,,2 .[G,B,D]2 .[G,B,D]2 | %9
 G,,2 .[G,B,D]2 .[G,B,D]2 |1 E,,2 .[E,G,B,]2 .[E,G,B,]2 | E,,2 .[E,G,B,]2 .[E,G,B,]2 | %12
 A,,2 .[A,CE]2 .[A,CE]2 | A,,2 .[A,CE]2 .[A,CE]2 | A,,2 .[A,CE]2 .[A,CE]2 | %15
 A,,2 .[A,CE]2 .[A,CE]2 :|2 E,,2 .[E,G,B,]2 .[E,G,B,]2 | E,,2 .[E,G,B,]2 .[E,G,B,]2 | %18
 A,,2 .[A,CE]2 .[A,CE]2 | A,,2 .[A,CE]2 .[A,CE]2 | A,,2 .[A,CE]2 .[A,CE]2 | %21
 A,,2 .[A,CE]2 .[A,CE]2 |: F,,2 .[F,A,C]2 .[F,A,C]2 | F,,2 .[F,A,C]2 .[F,A,C]2 | %24
 C,,2 .[C,E,G,]2 .[C,E,G,]2 | C,,2 .[C,E,G,]2 .[C,E,G,]2 | D,,2 .[D,^F,A,]2 .[D,F,A,]2 | %27
 D,,2 .[D,^F,A,]2 .[D,F,A,]2 | A,,2 .[A,CE]2 .[A,CE]2 | A,,2 .[A,CE]2 .[A,CE]2 | %30
 F,,2 .[F,A,C]2 .[F,A,C]2 | F,,2 .[F,A,C]2 .[F,A,C]2 | D,,2 .[D,^F,A,]2 .[D,F,A,]2 | %33
 E,,2 .[E,G,B,]2 .[E,G,B,]2 | A,,2 .[A,CE]2 .[A,CE]2 | A,,2 .[A,CE]2 .[A,CE]2 | %36
 A,,2 .[A,CE]2 .[A,CE]2 | A,,2 .[A,CE]2 .[A,CE]2 :: A,,2 .[A,CE]2 .[A,CE]2 | %39
 A,,2 .[A,CE]2 .[A,CE]2 | A,,2 .[A,CE]2 .[A,CE]2 | A,,2 .[A,CE]2 .[A,CE]2 | %42
 E,,2 .[E,G,B,]2 .[E,G,B,]2 | E,,2 .[E,G,B,]2 .[E,G,B,]2 | E,,2 .[E,G,B,]2 .[E,G,B,]2 | %45
 E,,2 .[E,G,B,]2 .[E,G,B,]2 | G,,2 .[G,B,D]2 .[G,B,D]2 | G,,2 .[G,B,D]2 .[G,B,D]2 | %48
 E,,2 .[E,G,B,]2 .[E,G,B,]2 | E,,2 .[E,G,B,]2 .[E,G,B,]2 | A,,2 .[A,CE]2 .[A,CE]2 | %51
 A,,2 .[A,CE]2 .[A,CE]2 | A,,2 .[A,CE]2 .[A,CE]2 | A,,2 .[A,CE]2 .[A,CE]2 :: %54
 F,,2 .[F,A,C]2 .[F,A,C]2 | F,,2 .[F,A,C]2 .[F,A,C]2 | C,,2 .[C,E,G,]2 .[C,E,G,]2 | %57
 C,,2 .[C,E,G,]2 .[C,E,G,]2 | D,,2 .[D,^F,A,]2 .[D,F,A,]2 | D,,2 .[D,^F,A,]2 .[D,F,A,]2 | %60
 A,,2 .[A,CE]2 .[A,CE]2 | A,,2 .[A,CE]2 .[A,CE]2 | F,,2 .[F,A,C]2 .[F,A,C]2 | %63
 F,,2 .[F,A,C]2 .[F,A,C]2 | D,,2 .[D,^F,A,]2 .[D,F,A,]2 | E,,2 .[E,G,B,]2 .[E,G,B,]2 | %66
 A,,2 .[A,CE]2 .[A,CE]2 | A,,2 .[A,CE]2 .[A,CE]2 | A,,2 .[A,CE]2 .[A,CE]2 | %69
 A,,2 .[A,CE]2 .[A,CE]2 :| [A,,A,CE]6 |] %71

